X: 7792
T: Come Let Us Dance And Sing
R: polka
M: 2/4
K: Dmajor
|:A2|"D"d2cd"A7"e2de|"D"f2d2dedc|"Emi"B2e2efed|"A7"c2A2A2 (3ABc|
"D"d2cd"A7"e2de|"D"f2d2dedc|"Emi"B2e2"A7"dcBc|"D"d2D2D2:|
|:AG|"D"F2A2ABAG|"D"F2A2A3G|"D"F2A2d2f2|"A7"edcBA2AG|
"D"F2A2ABAG|"D"F2A2A2Bc|1 "D"d2d2fefg|"A7"a2A2A2:|2 "D"d2d2"A7"ceac|"D"d2f2d2||

